packages/sources/assets/src/assets/oney-3x-4x.svg

<svg width="58" height="40" viewBox="0 0 58 40" fill="none" xmlns="http://www.w3.org/2000/svg">
<rect x="0.5" y="0.5" width="57" height="39" rx="3.5" fill="white" stroke="#F3F3F3"/>
<path fill-rule="evenodd" clip-rule="evenodd" d="M11.2225 12.8471L10.7748 12.0536L10.3276 12.8471H9.32458L10.265 11.4699L9.34164 10.1158H10.3441L10.7748 10.8867L11.2054 10.1158H12.2089L11.2907 11.4699L12.2255 12.8471H11.2225ZM7.61848 12.9319C6.63825 12.9319 6.09437 12.3539 6.09437 11.5154H7.01204C7.01204 11.946 7.25607 12.1957 7.60711 12.1957C7.94729 12.1957 8.13445 11.946 8.13445 11.6741C8.13445 11.3453 7.9809 11.1245 7.55076 11.1245H7.19351V10.4162H7.55076C7.95867 10.4162 8.07758 10.2177 8.07758 9.92868C8.07758 9.62831 7.89042 9.48665 7.62417 9.48665C7.23332 9.48665 7.11958 9.7193 7.11958 10.0647H6.2019C6.2019 9.39049 6.62119 8.79542 7.60142 8.79542C8.33246 8.79542 8.9844 9.16352 8.9844 9.90645C8.9844 10.3537 8.71814 10.6768 8.4007 10.7843C8.75743 10.9146 9.04695 11.2377 9.04695 11.7418C9.04695 12.4956 8.37227 12.9319 7.61848 12.9319ZM9.07591 6C6.2293 6 4 8.23551 4 11.0925C4 13.9478 6.2293 16.1865 9.07591 16.1865C11.9158 16.1865 14.1441 13.9478 14.1441 11.0925C14.1441 8.23551 11.9158 6 9.07591 6ZM23.321 21.0581C21.1227 21.0581 20.0052 22.2309 20.0052 24.5529V31.4268H17.7473V24.3909C17.769 23.158 17.9887 22.2856 18.4942 21.4669C19.0924 20.5473 20.513 19 23.321 19C26.1222 19 27.5474 20.5473 28.1444 21.4669C28.6454 22.2856 28.8719 23.158 28.8856 24.3909V31.4268H26.6301V24.5529C26.6301 22.2309 25.5194 21.0581 23.321 21.0581ZM4 25.2236C4 21.733 6.73482 19.0032 10.228 19.0032C13.712 19.0032 16.4468 21.733 16.4468 25.2236C16.4468 28.7099 13.712 31.444 10.228 31.444C6.73482 31.444 4 28.7099 4 25.2236ZM6.20067 25.2236C6.20067 27.5167 8.00787 29.314 10.228 29.314C12.4332 29.314 14.2496 27.5167 14.2496 25.2236C14.2496 22.9305 12.4332 21.1289 10.228 21.1289C8.00787 21.1289 6.20067 22.9305 6.20067 25.2236ZM42.2635 25.0594C42.2429 21.7277 39.5401 19.0172 36.2334 19.0172C32.8306 19.0172 30.1632 21.7373 30.1632 25.2086C30.1632 26.8385 30.79 28.3858 31.9178 29.5672C33.0662 30.7626 34.5806 31.4214 36.1922 31.4214C38.0314 31.4214 40.6084 30.5426 41.8334 28.0489L41.8654 27.9684H39.3994L39.3845 27.9867C38.7223 28.7753 37.4721 29.3076 36.2814 29.3076C34.7693 29.3076 32.9553 28.315 32.4588 26.0745H42.2154C42.2372 25.8427 42.2635 25.3792 42.2635 25.0594ZM36.2151 21.1289C34.2741 21.1289 32.8306 22.5947 32.5309 24.0958H39.8912C39.595 22.5947 38.1527 21.1289 36.2151 21.1289ZM49.2418 30.5598L54 19.0032H51.6346L48.0671 27.6926L44.5065 19.0032H42.0267L46.8901 30.5619L45.0692 35H47.4163L48.066 33.4194L49.2418 30.5598ZM23.0484 12.1185L23.5009 12.9205H24.5145L23.5693 11.5286L24.4973 10.1601H23.4836L23.0484 10.9392L22.6131 10.1601H21.5995L22.5332 11.5286L21.5822 12.9205H22.5964L23.0484 12.1185ZM20.9296 11.8154H21.4161V11.0306H20.9296V9.92554H20.0074V11.0306H19.3318V8.91189H18.4039V11.8154H20.0074V12.9205H20.9296V11.8154ZM16.1441 11.1471C16.1441 8.25981 18.3971 6 21.274 6C24.1441 6 26.3966 8.25981 26.3966 11.1471C26.3966 14.0329 24.1441 16.2953 21.274 16.2953C18.3971 16.2953 16.1441 14.0329 16.1441 11.1471Z" fill="#87BC2B"/>
</svg>

<svg width="58" height="40" fill="none" xmlns="http://www.w3.org/2000/svg"><rect x=".5" y=".5" width="57" height="39" rx="3.5" fill="#fff" stroke="#F3F3F3"/><path fill-rule="evenodd" clip-rule="evenodd" d="m11.223 12.847-.448-.793-.447.793H9.325l.94-1.377-.923-1.354h1.002l.43.77.431-.77h1.004l-.918 1.354.934 1.377h-1.002Zm-3.605.085c-.98 0-1.524-.578-1.524-1.417h.918c0 .431.244.68.595.68.34 0 .527-.249.527-.52 0-.33-.153-.55-.583-.55h-.357v-.709h.357c.408 0 .527-.198.527-.487 0-.3-.188-.442-.454-.442-.39 0-.504.232-.504.578h-.918c0-.675.42-1.27 1.4-1.27.73 0 1.382.369 1.382 1.111 0 .448-.266.77-.583.878.356.13.646.454.646.958 0 .754-.675 1.19-1.429 1.19ZM9.076 6C6.229 6 4 8.236 4 11.092c0 2.856 2.23 5.094 5.076 5.094 2.84 0 5.068-2.238 5.068-5.094C14.144 8.236 11.916 6 9.076 6ZM23.32 21.058c-2.198 0-3.316 1.173-3.316 3.495v6.874h-2.258V24.39c.022-1.233.242-2.105.747-2.924.598-.92 2.019-2.467 4.827-2.467 2.801 0 4.226 1.547 4.823 2.467.501.819.728 1.691.742 2.924v7.036H26.63v-6.874c0-2.322-1.11-3.495-3.309-3.495ZM4 25.224c0-3.491 2.735-6.22 6.228-6.22 3.484 0 6.219 2.729 6.219 6.22 0 3.486-2.735 6.22-6.219 6.22C6.735 31.444 4 28.71 4 25.224Zm2.2 0c0 2.293 1.808 4.09 4.028 4.09 2.205 0 4.022-1.797 4.022-4.09 0-2.294-1.817-4.095-4.022-4.095-2.22 0-4.027 1.801-4.027 4.095Zm36.063-.165c-.02-3.331-2.723-6.042-6.03-6.042-3.402 0-6.07 2.72-6.07 6.192a6.29 6.29 0 0 0 1.755 4.358c1.148 1.196 2.663 1.854 4.274 1.854 1.84 0 4.416-.878 5.641-3.372l.032-.08H39.4l-.014.018c-.663.788-1.913 1.32-3.104 1.32-1.512 0-3.326-.992-3.822-3.232h9.756c.022-.232.048-.696.048-1.016Zm-6.048-3.93c-1.94 0-3.384 1.466-3.684 2.967h7.36c-.296-1.501-1.738-2.967-3.676-2.967Zm13.027 9.43L54 19.004h-2.365l-3.568 8.69-3.56-8.69h-2.48l4.863 11.559L45.07 35h2.346l.65-1.58 1.176-2.86ZM23.048 12.12l.453.802h1.014l-.946-1.392.928-1.369h-1.013l-.436.78-.435-.78H21.6l.934 1.369-.95 1.392h1.013l.452-.803Zm-2.118-.304h.486v-.784h-.486V9.926h-.923v1.105h-.675V8.91h-.928v2.904h1.603v1.106h.923v-1.106Zm-4.786-.668C16.144 8.26 18.397 6 21.274 6c2.87 0 5.123 2.26 5.123 5.147 0 2.886-2.253 5.148-5.123 5.148-2.877 0-5.13-2.262-5.13-5.148Z" fill="#87BC2B"/></svg>
